X:1
T: Swallow Tail
C:
R:Jig
Q:180
K:Em
M:6/8
L:1/16
|:F2|G2E2E2 B2E2E2|G2E2E2 B2A2G2|F2D2D2 A2D2D2|d2^c2d2 A2G2F2|
G2E2E2 B2E2E2|G2F2G2 B4^c2|d2^c2d2 A2G2F2|G2E2E2 E4:|
|:d2|B2^c2d2 e4f2|e2f2e2 e2d2B2|B2^c2d2 e4f2|e2d2B2 d6|
B2^c2d2 e4f2|e2f2e2 e2d2B2|d2^c2d2 A2G2F2|G2E2E2 E4:|
